!!!OTL: Die Mordeltern Es waren einmal zwei Bauernsoehn,
!!!ARE: Europa, Mitteleuropa, Deutschland / France, Lothringen
!!!YOR: 4, S. 308
!!    ????
!!!SCT: Q0085J
!!!YEM: Copyright 1995, estate of Helmut Schaffrath.
**kern
*ICvox
*Ivox
!! Mixed meters:  3/4; 2/4
*M3/4
*k[f#]
*G:
{8d
12d
12e
12f#
=1
4.g
8d
12g
12a
12b
=2
4.a}
{8cc
8b
8a
=3
4.g
16d
16e
8fn
8e
=4
*M2/4
4.d
8r}
=5
{8.a
16cc
=6
8b
8a
4g
=7
8b
8a
4g
=8
2f#
=9
4g
4r}
=10
{8.a
16cc
=11
8b
8a
4g
=12
8b
8a
4g
=13
2f#
=14
4g
8r}
==
!!!AGN: Ballade, Habgier, Mord, Reue, Selbstmord
!!!ONB: ESAC (Essen Associative Code) Database: BALLADE
!!!AMT: irregular
!!!AIN: vox
!!!EED: Helmut Schaffrath
!!!EEV: 1.0
*-
